**harm	**harte	**kern	**silbe	**kern	**silbe	**rhyme	**timestamp	**phrase	**leadinstrument
*M4/4	*M4/4	*ICvox	*	*ICvox	*	*	*	*	*
*	*	*VRlead	*	*VRharmonize	*	*	*	*	*
*	*	*Hstimme	*	*Nstimme	*	*	*	*	*
*E:	*E:	*E:	*	*E:	*	*	*	*	*
*	*	*M4/4	*	*M4/4	*	*	*	*	*
*	*	*clefG2	*	*clefG2	*	*	*	*	*
1r;	N	r;	.	r;	.	.	0	.	r
1r;	N	r;	.	r;	.	.	1.123	.	r
=1	=1	=1	=1	=1	=1	=1	=1	=1	=1
*>Letter>C	*>Letter>C	*>Letter>C	*>Letter>C	*>Letter>C	*>Letter>C	*>Letter>C	*>Letter>C	*>Letter>C	*>Letter>C
*>Label>Intro	*>Label>Intro	*>Label>Intro	*>Label>Intro	*>Label>Intro	*>Label>Intro	*>Label>Intro	*>Label>Intro	*>Label>Intro	*>Label>Intro
1Im7	E:7	1r	.	1r	.	.	2.673	newline	r
=2	=2	=2	=2	=2	=2	=2	=2	=2	=2
1Im7	E:7	1r	.	1r	.	.	4.15	.	r
=3	=3	=3	=3	=3	=3	=3	=3	=3	=3
1Im7	E:7	1r	.	1r	.	.	5.627	.	r
=4	=4	=4	=4	=4	=4	=4	=4	=4	=4
1Im7	E:7	4.r	.	1r	.	.	7.105	.	r
.	.	8B	Well	.	.	.	.	.	.
.	.	8d	she	.	.	.	.	.	.
.	.	4e	was	.	.	.	.	.	.
.	.	[8e	just	.	.	.	.	.	.
=5	=5	=5	=5	=5	=5	=5	=5	=5	=5
*>Letter>A	*>Letter>A	*>Letter>A	*>Letter>A	*>Letter>A	*>Letter>A	*>Letter>A	*>Letter>A	*>Letter>A	*>Letter>A
*>Label>Verse	*>Label>Verse	*>Label>Verse	*>Label>Verse	*>Label>Verse	*>Label>Verse	*>Label>Verse	*>Label>Verse	*>Label>Verse	*>Label>Verse
1Im7	E:7	4e]	_	1r	.	.	8.582	newline	voice
.	.	4r	.	.	.	.	.	.	.
.	.	8e	se-	.	.	.	.	.	.
.	.	4d	-ven-	.	.	.	.	.	.
.	.	8f#	-teen	.	.	A	.	.	.
=6	=6	=6	=6	=6	=6	=6	=6	=6	=6
1Im7	E:7	4e	_	1r	.	.	10.067	.	voice
.	.	4.r	.	.	.	.	.	.	.
.	.	8d	if	.	.	.	.	.	.
.	.	4e	you	.	.	.	.	.	.
=7	=7	=7	=7	=7	=7	=7	=7	=7	=7
1IVm7	A:7	4e	know	1r	.	.	11.551	.	voice
.	.	4r	.	.	.	.	.	.	.
.	.	8e	what	.	.	.	.	.	.
.	.	4d	I	.	.	.	.	.	.
.	.	8f#	mean	.	.	A	.	.	.
=8	=8	=8	=8	=8	=8	=8	=8	=8	=8
1Im7	E:7	4e	_	1r	.	.	13.036	.	voice
.	.	2r	.	.	.	.	.	.	.
.	.	8e	And	.	.	.	.	.	.
.	.	8d	the	.	.	.	.	.	.
=9	=9	=9	=9	=9	=9	=9	=9	=9	=9
1Im7	E:7	4e	way	1r	.	.	14.521	newline	voice
.	.	8d	she	.	.	.	.	.	.
.	.	8E	looked	.	.	.	.	.	.
.	.	4r	.	.	.	.	.	.	.
.	.	8e	was	.	.	.	.	.	.
.	.	[8f#	way	.	.	.	.	.	.
=10	=10	=10	=10	=10	=10	=10	=10	=10	=10
1Im7	E:7	4.f#]	_	1r	.	.	16.013	.	voice
.	.	8e	be-	.	.	.	.	.	.
.	.	4d	-yond	.	.	.	.	.	.
.	.	8e	com-	.	.	.	.	.	.
.	.	[8d	-pare	.	.	B	.	.	.
=11	=11	=11	=11	=11	=11	=11	=11	=11	=11
1V7	B:7	8d]	_	1r	.	.	17.505	.	voice
.	.	[4.B	_	.	.	.	.	.	.
.	.	4B]	_	.	.	.	.	.	.
.	.	4r	.	.	.	.	.	.	.
=12	=12	=12	=12	=12	=12	=12	=12	=12	=12
1V7	B:7	2r	.	1r	.	.	18.997	.	voice
.	.	4r	.	.	.	.	.	.	.
.	.	4B	So	.	.	.	.	.	.
=13	=13	=13	=13	=13	=13	=13	=13	=13	=13
1Im7	E:7	4B	how	4G#	how	.	20.489	newline	voice
.	.	4r	.	4r	.	.	.	.	.
.	.	8c#	could	8G#	could	.	.	.	.
.	.	4d#	I	4A	I	.	.	.	.
.	.	[8e	dance	[8B	dance	.	.	.	.
=14	=14	=14	=14	=14	=14	=14	=14	=14	=14
1Im7b	E:7/3	4e]	_	4B]	_	.	21.979	.	voice
.	.	4r	.	4r	.	.	.	.	.
.	.	8f#	with	8B	with	.	.	.	.
.	.	4g	a-	4c#	a-	.	.	.	.
.	.	[8f#	-no-	[8A	-no-	.	.	.	.
=15	=15	=15	=15	=15	=15	=15	=15	=15	=15
1IVm7	A:7	8f#]	_	8A]	_	.	23.469	.	voice
.	.	4.e	-ther	4.A	-ther	c	.	.	.
.	.	4.r	.	4.r	.	.	.	.	.
.	.	[8ee	Wooh	[8c	Wooh	.	.	.	.
=16	=16	=16	=16	=16	=16	=16	=16	=16	=16
1-VI	C:maj	2ee_	_	2c_	_	.	24.959	.	voice
.	.	8ee]	_	8c]	_	.	.	.	.
.	.	8e	When	8c	When	.	.	.	.
.	.	4e	I	4c	I	.	.	.	.
=17	=17	=17	=17	=17	=17	=17	=17	=17	=17
1Im7	E:7	2e	saw	2B	saw	.	26.449	newline	voice
.	.	2d	her	2G#	her	C	.	.	.
=18	=18	=18	=18	=18	=18	=18	=18	=18	=18
1V7	B:7	[2B	stand-	[2F#	stand-	D	27.947	.	voice
.	.	8B]	_	8F#]	_	.	.	.	.
.	.	4F#	-ing	4F#	-ing	.	.	.	.
.	.	[8E	there	[8E	there	B	.	.	.
=19	=19	=19	=19	=19	=19	=19	=19	=19	=19
1Im7	E:7	4E]	_	4E]	_	.	29.445	.	voice
.	.	4r	.	4r	.	.	.	.	.
.	.	2r	.	2r	.	.	.	.	.
=20	=20	=20	=20	=20	=20	=20	=20	=20	=20
1Im7	E:7	2r	.	1r	.	.	30.942	.	voice
.	.	4r	.	.	.	.	.	.	.
.	.	8d	Well	.	.	.	.	.	.
.	.	[8e	she	.	.	A	.	.	.
=21	=21	=21	=21	=21	=21	=21	=21	=21	=21
*>Letter>A	*>Letter>A	*>Letter>A	*>Letter>A	*>Letter>A	*>Letter>A	*>Letter>A	*>Letter>A	*>Letter>A	*>Letter>A
*>Label>Verse	*>Label>Verse	*>Label>Verse	*>Label>Verse	*>Label>Verse	*>Label>Verse	*>Label>Verse	*>Label>Verse	*>Label>Verse	*>Label>Verse
1Im7	E:7	4e]	_	1r	.	.	32.44	newline	voice
.	.	4r	.	.	.	.	.	.	.
.	.	8e	looked	.	.	.	.	.	.
.	.	4d	at	.	.	.	.	.	.
.	.	8f#	me	.	.	A	.	.	.
=22	=22	=22	=22	=22	=22	=22	=22	=22	=22
1Im7	E:7	4e	_	1r	.	.	33.919	.	voice
.	.	2r	.	.	.	.	.	.	.
.	.	8d	and	.	.	.	.	.	.
.	.	[8e	I	.	.	.	.	.	.
=23	=23	=23	=23	=23	=23	=23	=23	=23	=23
1IVm7	A:7	4e]	_	1r	.	.	35.398	.	voice
.	.	8r	.	.	.	.	.	.	.
.	.	4e	I	.	.	.	.	.	.
.	.	4d	could	.	.	.	.	.	.
.	.	8f#	see	.	.	A	.	.	.
=24	=24	=24	=24	=24	=24	=24	=24	=24	=24
1Im7	E:7	4e	_	1r	.	.	36.877	.	voice
.	.	2r	.	.	.	.	.	.	.
.	.	8e	That	.	.	.	.	.	.
.	.	8d	be-	.	.	.	.	.	.
=25	=25	=25	=25	=25	=25	=25	=25	=25	=25
1Im7	E:7	4e	-fore	1r	.	.	38.356	newline	voice
.	.	8d	to	.	.	.	.	.	.
.	.	4E	long	.	.	.	.	.	.
.	.	4r	.	.	.	.	.	.	.
.	.	[8f#	I'd	.	.	.	.	.	.
=26	=26	=26	=26	=26	=26	=26	=26	=26	=26
1Im7	E:7	8f#]	_	1r	.	.	39.847	.	voice
.	.	8f#	fall	.	.	.	.	.	.
.	.	8e	in	.	.	.	.	.	.
.	.	4.d	love	.	.	.	.	.	.
.	.	8e	with	.	.	.	.	.	.
.	.	[8d	her	.	.	C	.	.	.
=27	=27	=27	=27	=27	=27	=27	=27	=27	=27
1V7	B:7	8d]	_	1r	.	.	41.338	.	voice
.	.	4.B	_	.	.	.	.	.	.
.	.	2r	.	.	.	.	.	.	.
=28	=28	=28	=28	=28	=28	=28	=28	=28	=28
1V7	B:7	1r	.	1r	.	.	42.829	.	voice
=29	=29	=29	=29	=29	=29	=29	=29	=29	=29
1Im7	E:7	4B	She	4G#	She	A	44.319	newline	voice
.	.	4r	.	4r	.	.	.	.	.
.	.	8c#	would-	8G#	would-	.	.	.	.
.	.	4d#	-n't	4A	-n't	.	.	.	.
.	.	[8e	dance	[8B	dance	D	.	.	.
=30	=30	=30	=30	=30	=30	=30	=30	=30	=30
1Im7b	E:7/3	4e]	_	4B]	_	.	45.794	.	voice
.	.	4r	.	4r	.	.	.	.	.
.	.	8f#	with	8B	with	.	.	.	.
.	.	4g	a-	4c#	a-	.	.	.	.
.	.	[8f#	-no-	[8A	-no-	.	.	.	.
=31	=31	=31	=31	=31	=31	=31	=31	=31	=31
1IVm7	A:7	8f#]	_	8A]	_	.	47.268	.	voice
.	.	4.e	-ther	4.A	-ther	c	.	.	.
.	.	4.r	.	4.r	.	.	.	.	.
.	.	[8ee	Wooh	[8c	Wooh	.	.	.	.
=32	=32	=32	=32	=32	=32	=32	=32	=32	=32
1-VI	C:maj	2ee_	_	2c_	_	.	48.742	.	voice
.	.	8ee]	_	8c]	_	.	.	.	.
.	.	8e	When	8c	When	.	.	.	.
.	.	4e	I	4c	I	.	.	.	.
=33	=33	=33	=33	=33	=33	=33	=33	=33	=33
1Im7	E:7	2e	saw	2B	saw	.	50.216	newline	voice
.	.	2d	her	2G#	her	c	.	.	.
=34	=34	=34	=34	=34	=34	=34	=34	=34	=34
1V7	B:7	[2B	stand-	[2F#	stand-	D	51.701	.	voice
.	.	8B]	_	8F#]	_	.	.	.	.
.	.	4F#	-ing	4F#	-ing	.	.	.	.
.	.	[8E	there	[8E	there	.	.	.	.
=35	=35	=35	=35	=35	=35	=35	=35	=35	=35
1Im7	E:7	4E]	_	4E]	_	.	53.185	.	voice
.	.	4r	.	4r	.	.	.	.	.
.	.	2r	.	2r	.	.	.	.	.
=36	=36	=36	=36	=36	=36	=36	=36	=36	=36
1Im7	E:7	2r	.	2r	.	.	54.67	.	voice
.	.	4c#	Well	4G#	Well	.	.	.	.
.	.	4e	my	4G#	my	.	.	.	.
=37	=37	=37	=37	=37	=37	=37	=37	=37	=37
*>Letter>B	*>Letter>B	*>Letter>B	*>Letter>B	*>Letter>B	*>Letter>B	*>Letter>B	*>Letter>B	*>Letter>B	*>Letter>B
*>Label>Chorus	*>Label>Chorus	*>Label>Chorus	*>Label>Chorus	*>Label>Chorus	*>Label>Chorus	*>Label>Chorus	*>Label>Chorus	*>Label>Chorus	*>Label>Chorus
1IVm7	A:7	2g	heart	2A	heart	.	56.154	newline	voice
.	.	4.f#	went	4.A	went	.	.	.	.
.	.	[8e	boom	[8A	boom	E	.	.	.
=38	=38	=38	=38	=38	=38	=38	=38	=38	=38
1IVm7	A:7	4e]	_	4A]	_	.	57.658	.	voice
.	.	4r	.	4r	.	.	.	.	.
.	.	4c#	When	4A	When	.	.	.	.
.	.	4e	I	4A	I	.	.	.	.
=39	=39	=39	=39	=39	=39	=39	=39	=39	=39
1IVm7	A:7	2g	crossed	2A	crossed	.	59.162	.	voice
.	.	4.f#	that	4.A	that	.	.	.	.
.	.	[8e	room	[8A	room	E	.	.	.
=40	=40	=40	=40	=40	=40	=40	=40	=40	=40
1IVm7	A:7	4e]	_	4A]	_	.	60.666	.	voice
.	.	4r	.	4r	.	.	.	.	.
.	.	4c#	And	4A	And	.	.	.	.
.	.	4e	I	4A	I	.	.	.	.
=41	=41	=41	=41	=41	=41	=41	=41	=41	=41
1IVm7	A:7	2g	held	2A	held	.	62.17	newline	voice
.	.	4.f#	her	4.A	her	C	.	.	.
.	.	[8e	hand	[8A	hand	D	.	.	.
=42	=42	=42	=42	=42	=42	=42	=42	=42	=42
1IVm7	A:7	4e]	_	4A]	_	.	63.702	.	voice
.	.	4r	.	4r	.	.	.	.	.
.	.	2e	in	2A	in	.	.	.	.
=43	=43	=43	=43	=43	=43	=43	=43	=43	=43
1V7	B:7	4f#	mine	4B	mine	F	65.233	.	voice
.	.	[2.b	_	[2.f#	_	.	.	.	.
=44	=44	=44	=44	=44	=44	=44	=44	=44	=44
1V7	B:7	1b]	_	1f#]	_	.	66.765	.	voice
=45	=45	=45	=45	=45	=45	=45	=45	=45	=45
1IVm7	A:7	[1cc#	_	2e	_	.	68.296	newline	voice
.	.	.	.	2r	.	.	.	.	.
=46	=46	=46	=46	=46	=46	=46	=46	=46	=46
1IVm7	A:7	4.cc#]	_	1r	.	.	69.781	.	voice
.	.	4a	Woah	.	.	.	.	.	.
.	.	4g	we	.	.	.	.	.	.
.	.	[8e	danced	.	.	D	.	.	.
=47	=47	=47	=47	=47	=47	=47	=47	=47	=47
*>Letter>A	*>Letter>A	*>Letter>A	*>Letter>A	*>Letter>A	*>Letter>A	*>Letter>A	*>Letter>A	*>Letter>A	*>Letter>A
*>Label>Verse	*>Label>Verse	*>Label>Verse	*>Label>Verse	*>Label>Verse	*>Label>Verse	*>Label>Verse	*>Label>Verse	*>Label>Verse	*>Label>Verse
1Im7	E:7	2e]	_	1r	.	.	71.266	newline	voice
.	.	8e	through	.	.	.	.	.	.
.	.	4d	the	.	.	.	.	.	.
.	.	8f#	night	.	.	F	.	.	.
=48	=48	=48	=48	=48	=48	=48	=48	=48	=48
1Im7	E:7	4e	_	1r	.	.	72.765	.	voice
.	.	2r	.	.	.	.	.	.	.
.	.	8e	And	.	.	.	.	.	.
.	.	8d	we	.	.	.	.	.	.
=49	=49	=49	=49	=49	=49	=49	=49	=49	=49
1IVm7	A:7	4e	held	1r	.	.	74.265	.	voice
.	.	4e	each	.	.	.	.	.	.
.	.	8e	o-	.	.	.	.	.	.
.	.	4d	-ther	.	.	c	.	.	.
.	.	8f#	tight	.	.	F	.	.	.
=50	=50	=50	=50	=50	=50	=50	=50	=50	=50
1Im7	E:7	4e	_	1r	.	.	75.764	.	voice
.	.	2r	.	.	.	.	.	.	.
.	.	8e	And	.	.	.	.	.	.
.	.	8d	be-	.	.	.	.	.	.
=51	=51	=51	=51	=51	=51	=51	=51	=51	=51
1Im7	E:7	4e	-fore	1r	.	.	77.263	newline	voice
.	.	8d	too	.	.	.	.	.	.
.	.	4E	long	.	.	.	.	.	.
.	.	4r	.	.	.	.	.	.	.
.	.	[8f#	I	.	.	.	.	.	.
=52	=52	=52	=52	=52	=52	=52	=52	=52	=52
1Im7	E:7	8f#]	_	1r	.	.	78.779	.	voice
.	.	8f#	fell	.	.	.	.	.	.
.	.	8e	in	.	.	.	.	.	.
.	.	4.d	love	.	.	.	.	.	.
.	.	8e	with	.	.	.	.	.	.
.	.	[8d	her	.	.	C	.	.	.
=53	=53	=53	=53	=53	=53	=53	=53	=53	=53
1V7	B:7	8d]	_	1r	.	.	80.294	.	voice
.	.	[4.B	_	.	.	.	.	.	.
.	.	4B]	_	.	.	.	.	.	.
.	.	4r	.	.	.	.	.	.	.
=54	=54	=54	=54	=54	=54	=54	=54	=54	=54
1V7	B:7	2r	.	1r	.	.	81.81	.	voice
.	.	4r	.	.	.	.	.	.	.
.	.	4B	Now	.	.	.	.	.	.
=55	=55	=55	=55	=55	=55	=55	=55	=55	=55
1Im7	E:7	4B	I'll	4G#	I'll	.	83.325	newline	voice
.	.	4r	.	4r	.	.	.	.	.
.	.	8c#	ne-	8G#	ne-	.	.	.	.
.	.	4d#	-ver	4A	-ver	c	.	.	.
.	.	[8e	dance	[8B	dance	D	.	.	.
=56	=56	=56	=56	=56	=56	=56	=56	=56	=56
1Im7b	E:7/3	4e]	_	4B]	_	.	84.819	.	voice
.	.	4r	.	4r	.	.	.	.	.
.	.	8f#	with	8B	with	.	.	.	.
.	.	4g	a-	4c#	a-	.	.	.	.
.	.	[8f#	-no-	[8A	-no-	.	.	.	.
=57	=57	=57	=57	=57	=57	=57	=57	=57	=57
1IVm7	A:7	8f#]	_	8A]	_	.	86.313	.	voice
.	.	4.e	-ther	4.A	-ther	c	.	.	.
.	.	4.r	.	4.r	.	.	.	.	.
.	.	[8ee	Wooh	[8c	Wooh	.	.	.	.
=58	=58	=58	=58	=58	=58	=58	=58	=58	=58
1-VI	C:maj	2ee_	_	2c_	_	.	87.807	.	voice
.	.	8ee]	_	8c]	_	.	.	.	.
.	.	8e	Since	8c	Since	.	.	.	.
.	.	4e	I	4c	I	.	.	.	.
=59	=59	=59	=59	=59	=59	=59	=59	=59	=59
1Im7	E:7	2e	saw	2B	saw	.	89.3	newline	voice
.	.	2d	her	2G#	her	C	.	.	.
=60	=60	=60	=60	=60	=60	=60	=60	=60	=60
1V7	B:7	[2B	stand-	[2F#	stand-	D	90.788	.	voice
.	.	8B]	_	8F#]	_	.	.	.	.
.	.	4F#	-ing	4F#	-ing	.	.	.	.
.	.	[8E	there	[8E	there	.	.	.	.
=61	=61	=61	=61	=61	=61	=61	=61	=61	=61
1Im7	E:7	4E]	_	4E]	_	.	92.275	.	voice
.	.	4r	.	4r	.	.	.	.	.
.	.	2r	.	2r	.	.	.	.	.
=62	=62	=62	=62	=62	=62	=62	=62	=62	=62
1V7	B:7	1r	.	1r	.	.	93.763	.	voice
=63	=63	=63	=63	=63	=63	=63	=63	=63	=63
*>Letter>A	*>Letter>A	*>Letter>A	*>Letter>A	*>Letter>A	*>Letter>A	*>Letter>A	*>Letter>A	*>Letter>A	*>Letter>A
*>Label>Instrumental	*>Label>Instrumental	*>Label>Instrumental	*>Label>Instrumental	*>Label>Instrumental	*>Label>Instrumental	*>Label>Instrumental	*>Label>Instrumental	*>Label>Instrumental	*>Label>Instrumental
1Im7	E:7	1r	.	1r	.	.	95.25	newline	voice
=64	=64	=64	=64	=64	=64	=64	=64	=64	=64
1Im7	E:7	1r	.	1r	.	.	96.729	.	voice
=65	=65	=65	=65	=65	=65	=65	=65	=65	=65
1IVm7	A:7	1r	.	1r	.	.	98.209	.	voice
=66	=66	=66	=66	=66	=66	=66	=66	=66	=66
1Im7	E:7	1r	.	1r	.	.	99.688	.	voice
=67	=67	=67	=67	=67	=67	=67	=67	=67	=67
1Im7	E:7	1r	.	1r	.	.	101.168	newline	voice
=68	=68	=68	=68	=68	=68	=68	=68	=68	=68
1Im7	E:7	1r	.	1r	.	.	102.664	.	voice
=69	=69	=69	=69	=69	=69	=69	=69	=69	=69
1V7	B:7	1r	.	1r	.	.	104.161	.	voice
=70	=70	=70	=70	=70	=70	=70	=70	=70	=70
1V7	B:7	1r	.	1r	.	.	105.657	.	voice
=71	=71	=71	=71	=71	=71	=71	=71	=71	=71
1Im7	E:7	1r	.	1r	.	.	107.154	newline	voice
=72	=72	=72	=72	=72	=72	=72	=72	=72	=72
2Im7	E:7	1r	.	1r	.	.	108.666	.	voice
2Im7b	E:7/3	.	.	.	.	.	109.422	.	voice
=73	=73	=73	=73	=73	=73	=73	=73	=73	=73
1IVm7	A:7	1r	.	1r	.	.	110.177	.	voice
=74	=74	=74	=74	=74	=74	=74	=74	=74	=74
1iv	A:min	1r	.	1r	.	.	111.689	.	voice
=75	=75	=75	=75	=75	=75	=75	=75	=75	=75
1Im7	E:7	1r	.	1r	.	.	113.201	newline	voice
=76	=76	=76	=76	=76	=76	=76	=76	=76	=76
1V7	B:7	1r	.	1r	.	.	114.675	.	voice
=77	=77	=77	=77	=77	=77	=77	=77	=77	=77
1Im7	E:7	1r	.	1r	.	.	116.149	.	voice
=78	=78	=78	=78	=78	=78	=78	=78	=78	=78
1Im7	E:7	2r	.	2r	.	.	117.623	.	voice
.	.	4c#	Well	4G#	Well	.	.	.	.
.	.	4e	my	4G#	my	.	.	.	.
=79	=79	=79	=79	=79	=79	=79	=79	=79	=79
*>Letter>B	*>Letter>B	*>Letter>B	*>Letter>B	*>Letter>B	*>Letter>B	*>Letter>B	*>Letter>B	*>Letter>B	*>Letter>B
*>Label>Chorus	*>Label>Chorus	*>Label>Chorus	*>Label>Chorus	*>Label>Chorus	*>Label>Chorus	*>Label>Chorus	*>Label>Chorus	*>Label>Chorus	*>Label>Chorus
1IVm7	A:7	2g	heart	2A	heart	.	119.097	newline	voice
.	.	4.f#	went	4.A	went	.	.	.	.
.	.	[8e	boom	[8A	boom	E	.	.	.
=80	=80	=80	=80	=80	=80	=80	=80	=80	=80
1IVm7	A:7	4e]	_	4A]	_	.	120.59	.	voice
.	.	4r	.	4r	.	.	.	.	.
.	.	4c#	When	4A	When	.	.	.	.
.	.	4e	I	4A	I	.	.	.	.
=81	=81	=81	=81	=81	=81	=81	=81	=81	=81
1IVm7	A:7	2g	crossed	2A	crossed	.	122.084	.	voice
.	.	4.f#	that	4.A	that	.	.	.	.
.	.	[8e	room	[8A	room	E	.	.	.
=82	=82	=82	=82	=82	=82	=82	=82	=82	=82
1IVm7	A:7	4e]	_	4A]	_	.	123.577	.	voice
.	.	4r	.	4r	.	.	.	.	.
.	.	4c#	And	4A	And	.	.	.	.
.	.	4e	I	4A	I	.	.	.	.
=83	=83	=83	=83	=83	=83	=83	=83	=83	=83
1IVm7	A:7	2g	held	2A	held	.	125.071	newline	voice
.	.	4.f#	her	4.A	her	C	.	.	.
.	.	[8e	hand	[8A	hand	D	.	.	.
=84	=84	=84	=84	=84	=84	=84	=84	=84	=84
1IVm7	A:7	4e]	_	4A]	_	.	126.587	.	voice
.	.	4r	.	4r	.	.	.	.	.
.	.	2e	in	2A	in	.	.	.	.
=85	=85	=85	=85	=85	=85	=85	=85	=85	=85
1V7	B:7	4f#	mine	4B	mine	F	128.103	.	voice
.	.	[2.b	_	[2.f#	_	.	.	.	.
=86	=86	=86	=86	=86	=86	=86	=86	=86	=86
1V7	B:7	1b]	_	1f#]	_	.	129.618	.	voice
=87	=87	=87	=87	=87	=87	=87	=87	=87	=87
1IVm7	A:7	[1cc#	_	1e	_	.	131.134	newline	voice
=88	=88	=88	=88	=88	=88	=88	=88	=88	=88
1IVm7	A:7	4cc#]	_	1r	.	.	132.62	.	voice
.	.	2a	Whoa	.	.	.	.	.	.
.	.	4g	we	.	.	.	.	.	.
=89	=89	=89	=89	=89	=89	=89	=89	=89	=89
*>Letter>A	*>Letter>A	*>Letter>A	*>Letter>A	*>Letter>A	*>Letter>A	*>Letter>A	*>Letter>A	*>Letter>A	*>Letter>A
*>Label>Verse	*>Label>Verse	*>Label>Verse	*>Label>Verse	*>Label>Verse	*>Label>Verse	*>Label>Verse	*>Label>Verse	*>Label>Verse	*>Label>Verse
1Im7	E:7	2e	danced	1r	.	D	134.106	newline	voice
.	.	8e	through	.	.	.	.	.	.
.	.	4d	the	.	.	.	.	.	.
.	.	8f#	night	.	.	F	.	.	.
=90	=90	=90	=90	=90	=90	=90	=90	=90	=90
1Im7	E:7	4e	_	1r	.	.	135.61	.	voice
.	.	2r	.	.	.	.	.	.	.
.	.	8e	And	.	.	.	.	.	.
.	.	8d	we	.	.	.	.	.	.
=91	=91	=91	=91	=91	=91	=91	=91	=91	=91
1IVm7	A:7	4e	held	1r	.	.	137.114	.	voice
.	.	4e	each	.	.	.	.	.	.
.	.	8e	o-	.	.	.	.	.	.
.	.	4d	-ther	.	.	c	.	.	.
.	.	8f#	tight	.	.	F	.	.	.
=92	=92	=92	=92	=92	=92	=92	=92	=92	=92
1Im7	E:7	4e	_	1r	.	.	138.618	.	voice
.	.	2r	.	.	.	.	.	.	.
.	.	8e	and	.	.	.	.	.	.
.	.	8d	be-	.	.	.	.	.	.
=93	=93	=93	=93	=93	=93	=93	=93	=93	=93
1Im7	E:7	4e	-fore	1r	.	.	140.122	newline	voice
.	.	8d	too	.	.	.	.	.	.
.	.	4E	long	.	.	.	.	.	.
.	.	4r	.	.	.	.	.	.	.
.	.	[8f#	I	.	.	.	.	.	.
=94	=94	=94	=94	=94	=94	=94	=94	=94	=94
1Im7	E:7	8f#]	_	1r	.	.	141.628	.	voice
.	.	8f#	fell	.	.	.	.	.	.
.	.	8e	in	.	.	.	.	.	.
.	.	4.d	love	.	.	.	.	.	.
.	.	8e	with	.	.	.	.	.	.
.	.	[8d	her	.	.	C	.	.	.
=95	=95	=95	=95	=95	=95	=95	=95	=95	=95
1V7	B:7	8d]	_	1r	.	.	143.134	.	voice
.	.	[4.B	_	.	.	.	.	.	.
.	.	4B]	_	.	.	.	.	.	.
.	.	4r	.	.	.	.	.	.	.
=96	=96	=96	=96	=96	=96	=96	=96	=96	=96
1V7	B:7	2.r	.	1r	.	.	144.64	.	voice
.	.	4B	Now	.	.	.	.	.	.
=97	=97	=97	=97	=97	=97	=97	=97	=97	=97
1Im7	E:7	4B	I'll	4G#	I'll	.	146.145	newline	voice
.	.	4r	.	4r	.	.	.	.	.
.	.	8c#	ne-	8G#	ne-	.	.	.	.
.	.	4d#	-ver	4A	-ver	c	.	.	.
.	.	[8e	dance	[8B	dance	D	.	.	.
=98	=98	=98	=98	=98	=98	=98	=98	=98	=98
1Im7b	E:7/3	4e]	_	4B]	_	.	147.639	.	voice
.	.	4r	.	4r	.	.	.	.	.
.	.	8f#	with	8B	with	.	.	.	.
.	.	4g	a-	4c#	a-	.	.	.	.
.	.	[8f#	-no-	[8A	-no-	.	.	.	.
=99	=99	=99	=99	=99	=99	=99	=99	=99	=99
1IVm7	A:7	8f#]	_	8A]	_	.	149.132	.	voice
.	.	4.e	-ther	4.A	-ther	c	.	.	.
.	.	4.r	.	4.r	.	.	.	.	.
.	.	[8ee	Wooh	[8c	Wooh	.	.	.	.
=100	=100	=100	=100	=100	=100	=100	=100	=100	=100
1-VI	C:maj	2ee_	_	2c_	_	.	150.625	.	voice
.	.	8ee]	_	8c]	_	.	.	.	.
.	.	8e	Since	8c	Since	.	.	.	.
.	.	4e	I	4c	I	.	.	.	.
=101	=101	=101	=101	=101	=101	=101	=101	=101	=101
1Im7	E:7	2e	saw	2B	saw	.	152.118	newline	voice
.	.	2d	her	2G#	her	C	.	.	.
=102	=102	=102	=102	=102	=102	=102	=102	=102	=102
1V7	B:7	[2B	stand-	[2F#	stand-	D	153.629	.	voice
.	.	8B]	_	8F#]	_	.	.	.	.
.	.	4F#	-ing	4F#	-ing	.	.	.	.
.	.	[8E	there	[8E	there	.	.	.	.
=103	=103	=103	=103	=103	=103	=103	=103	=103	=103
1Im7	E:7	4E]	_	4E]	_	.	155.14	.	voice
.	.	4r	.	4r	.	.	.	.	.
.	.	2r	.	2r	.	.	.	.	.
=104	=104	=104	=104	=104	=104	=104	=104	=104	=104
1Im7	E:7	4r	.	1r	.	.	156.652	.	voice
.	.	4B	Woah	.	.	.	.	.	.
.	.	8d	since	.	.	.	.	.	.
.	.	4.e	I	.	.	.	.	.	.
=105	=105	=105	=105	=105	=105	=105	=105	=105	=105
*>Letter>A	*>Letter>A	*>Letter>A	*>Letter>A	*>Letter>A	*>Letter>A	*>Letter>A	*>Letter>A	*>Letter>A	*>Letter>A
*>Label>Outro	*>Label>Outro	*>Label>Outro	*>Label>Outro	*>Label>Outro	*>Label>Outro	*>Label>Outro	*>Label>Outro	*>Label>Outro	*>Label>Outro
1Im7	E:7	2e	saw	2B	saw	.	158.163	newline	voice
.	.	2d	her	2G#	her	C	.	.	.
=106	=106	=106	=106	=106	=106	=106	=106	=106	=106
1V7	B:7	[2B	stand-	[2F#	stand-	D	159.646	.	voice
.	.	8B]	_	8F#]	_	.	.	.	.
.	.	4F#	-ing	4F#	-ing	.	.	.	.
.	.	[8E	there	[8E	there	.	.	.	.
=107	=107	=107	=107	=107	=107	=107	=107	=107	=107
1Im7	E:7	4E]	_	4E]	_	.	161.129	.	voice
.	.	4r	.	4r	.	.	.	.	.
.	.	2r	.	2r	.	.	.	.	.
=108	=108	=108	=108	=108	=108	=108	=108	=108	=108
1Im7	E:7	4B	Yeah	1r	.	.	162.613	.	voice
.	.	4B	well	.	.	.	.	.	.
.	.	8d	since	.	.	.	.	.	.
.	.	4.e	I	.	.	.	.	.	.
=109	=109	=109	=109	=109	=109	=109	=109	=109	=109
1Im7	E:7	2e	saw	2B	saw	.	164.096	newline	voice
.	.	2d	her	2G#	her	C	.	.	.
=110	=110	=110	=110	=110	=110	=110	=110	=110	=110
1V7	B:7	2.B	stand-	2.F#	stand-	D	165.58	.	voice
.	.	8F#	-ing	8F#	-ing	.	.	.	.
.	.	[8E	there	[8E	there	.	.	.	.
=111	=111	=111	=111	=111	=111	=111	=111	=111	=111
1IVm7	A:7	4E]	_	4E]	_	.	167.064	.	voice
.	.	4r	.	4r	.	.	.	.	.
.	.	2r	.	2r	.	.	.	.	.
=112	=112	=112	=112	=112	=112	=112	=112	=112	=112
1Im7	E:7	1r	.	1r	.	.	168.548	.	voice
1r;	N	r;	.	r;	.	.	171.887	.	r
1r;	N	r;	.	r;	.	.	175.83	.	r
*-	*-	*-	*-	*-	*-	*-	*-	*-	*-
!!!BillboardChartDate: 1964/02/15
!!!BillboardPeak: 14
!!!BillboardWeeksOnChart: 11
!!!COC: The Beatles
!!!ENC: Nathaniel Condit-Schultz
!!!EST: Awating manual error checking and editing.
!!!OTL: I Saw Her Standing There
!!!RDF**harte: Chris Harte's syntax, used by MIREX
!!!RDF**harmony: **recip + pitch class of root + harmonic quality
!!!RDF**leadinstrument: original McGill primary instrumentation annotation
!!!RDF**phrase: newline = linebreak in original McGill transcription
!!!RDF**timestamp: McGill audio timestamp in seconds
!!!RDT: 2017/01/12/
!!!SampleActualRank: 54
!!!SampleID#: 0853
!!!SampleTargetRank: 56
!!!MBID: da77d23c-3acb-4b3d-9596-24aa55f03ece
